microsoft-edge.svg

<svg fill="currentColor" viewBox="0 0 24 24"><path d="M10.86 15.37c-.69-.77-1.16-1.69-1.31-2.72-.3.46-.55.96-.73 1.5-.92 2.75.68 6.18 3.4 7.18 2.34.78 4.97-.61 6.7-2.13.26-.35 2.31-2.16 1.29-2.36-3.02 1.55-7.02 1.11-9.35-1.47m.6-5.81c1.04-.01.04-.43-.39-.75-1.04-.57-2.26-.85-3.44-.85C3.78 8 .995 10.41 2.3 14.4c.94 3.88 4.31 7 8.29 7.5-2.05-1.29-3.29-3.71-3.29-6.12.08-2.53 1.64-5.5 4.16-6.22M2.78 8.24C5.82 6 10.66 6.18 13.28 9c1.02 1.11 1.72 3 .79 4.37-1.74 1.88 3.08 2.13 4.11 1.85 3.74-.72 4.73-5.07 2.95-8.07-1.7-3.4-5.47-5.18-9.17-5.15-4.06-.07-7.71 2.5-9.18 6.24"/></svg>

<svg  viewBox="0 0 24 24" fill="currentColor"><path  d="M10.86 15.37C10.17 14.6 9.7 13.68 9.55 12.65C9.25 13.11 9 13.61 8.82 14.15C7.9 16.9 9.5 20.33 12.22 21.33C14.56 22.11 17.19 20.72 18.92 19.2C19.18 18.85 21.23 17.04 20.21 16.84C17.19 18.39 13.19 17.95 10.86 15.37M11.46 9.56C12.5 9.55 11.5 9.13 11.07 8.81C10.03 8.24 8.81 7.96 7.63 7.96C3.78 8 .995 10.41 2.3 14.4C3.24 18.28 6.61 21.4 10.59 21.9C8.54 20.61 7.3 18.19 7.3 15.78C7.38 13.25 8.94 10.28 11.46 9.56M2.78 8.24C5.82 6 10.66 6.18 13.28 9C14.3 10.11 15 12 14.07 13.37C12.33 15.25 17.15 15.5 18.18 15.22C21.92 14.5 22.91 10.15 21.13 7.15C19.43 3.75 15.66 1.97 11.96 2C7.9 1.93 4.25 4.5 2.78 8.24Z"/></svg>
